X:1
T:I’ll Live On
T:I’ll Live On
T:Thomas Jesse Laney
T:Thomas Jesse  Laney, 1914
T:Public Domain Courtesy of the Cyber Hymnal™
T:Public Domain Courtesy of the Cyber Hymnal™
C:Thomas Jesse Laney
Z:Public Domain
Z:Courtesy of the Cyber Hymnal™
%%score ( 1 2 ) ( 3 4 )
L:1/8
Q:1/4=107
M:4/4
K:Bb
V:1 treble 
V:2 treble 
V:3 bass 
V:4 bass 
V:1
 [DF][EG] | [DB]2 [FB]2 [FB][DF][B,D][DF] | [EG]2 [EG]2 [DF]2 BB | d4- [Fd][Fd][Fc][=EB] | %4
w: 1.~’Tis a|sweet and glor- ious thought that|comes to me, I’ll live|on, yes, I’ll live on;|
w: 2.~When my|bo- dy’s slum- bering in the|cold, cold clay, I’ll live|on, yes, I’ll live on;|
w: 3.~When the|world’s on fire and dark- ness|veils the sun, I’ll live|on, yes, I’ll live on;|
w: 4.~In the|glo- ry- land, with Je- sus|on the throne, I’ll live|on, yes, I’ll live on;|
 [Fc]6 [DF][EG] | [DB]2 [FB]2 [FB][DF][B,D][DF] | [EG]2 [EG]2 [DF]2 BB | d4- [Bd][FB][FA][Fc] | %8
w: * Je- sus|saved my soul from death, and|now I’m free, I’ll live|on, yes, I’ll live on.|
w: * There to|sleep in Je- sus till the|judg- ment day, I’ll live|on, yes, I’ll live on.|
w: * Men will|cry and to the rocks and|mount- ains run, * *||
w: * Thru e-|ter- nal ag- es sing- ing,|home, sweet home, * *||
 [FB]6 ||"^Refrain" [DF][DF] | B4- [FB][DF][DB][FB] | d6 [Bd][Ac] | [GB]2 [GB]2 [GB]2 [GB][EG] | %13
w: |||||
w: |Thru e-|ter- ni- ty I’ll live|* on; I’ll|live on, yes, I’ll live|
w: |||||
w: |||||
 F6 [DF][DF] | B4- [FB][DF][DB][FB] | d6 [Bd][Ac] | [GB]2 [Bd]2 !fermata![Af]2 !fermata![Bd][Ac] | %17
w: ||||
w: on, Thru e-|ter- ni- ty I’ll live|* on. *||
w: ||||
w: ||||
 (z !fermata![FB]2) x4 |] %18
w: |
w: |
w: |
w: |
V:2
 x2 | x8 | x8 | F2 G2 x4 | x8 | x8 | x8 | F2 G2 x4 | x6 || x2 | F2 G2 x4 | (F2 G2 F2) x2 | x8 | %13
 (D2 D2 D2) x2 | F2 G2 x4 | (F2 G2 F2) x2 | x8 | B4 FDE |] %18
V:3
 [B,,B,][B,,B,] | [B,,F,]2 [B,,D]2 [B,,D][B,,B,][B,,F,][B,,B,] | [E,B,]2 [E,B,]2 [B,,B,]2 z2 | %3
w: ~ ~|~ ~ ~ ~ ~ ~|~ ~ ~|
 B,2 ([G,B,]2 B,)B,[A,C][G,C] | [F,A,]6 [B,,B,][B,,B,] | %5
w: ~ ~ * ~ ~ ~|~ ~ ~|
 [B,,F,]2 [B,,D]2 [B,,D][B,,B,][B,,F,][B,,B,] | [E,B,]2 [E,B,]2 [B,,B,]2 z2 | %7
w: ~ ~ ~ ~ ~ ~|~ ~ I’ll|
 B,2 [G,D]2 [F,F][F,D][F,C][F,E] | [B,,D]6 || [B,,B,][B,,B,] | %10
w: live on ~ ~ ~ ~|~|~ ~|
 [B,,D]2 [B,,E]2 [B,,D][B,,B,][B,,F,][B,,D] | B,2 [G,B,]2 B,2 [B,F][F,E] | %12
w: and on, ~ ~ ~ ~|and on, ~ ~ ~|
 [G,D]2 [G,D]2 [E,E]2 [E,E][E,B,] | [B,,B,]2 [B,,B,]2 [B,,B,]2 [B,,B,][B,,B,] | %14
w: ~ ~ ~ ~ ~|and on, ~ ~ ~|
 [B,,D]2 [B,,E]2 [B,,D][B,,B,][B,,F,][B,,D] | B,2 [G,B,]2 B,2 [B,F][F,E] | %16
w: and on, ~ ~ ~ ~|and on, ~ ~ ~|
 [G,D]2 [G,B,]2 !fermata![F,C]2 !fermata![F,F][F,E] | DDB,C !fermata![B,,D]2 x |] %18
w: ~ ~ ~ ~ ~|yes, I’ll live on. *|
V:4
 x2 | x8 | x8 | (B,2 B,)B, x4 | x8 | x8 | x8 | B,2 x6 | x6 || x2 | x8 | B,2 B,2 x4 | x8 | x8 | x8 | %15
 B,2 B,2 x4 | x8 | B,,4- x3 |] %18

